X:1
T:Cockfosters, 86.86.88.88
T:Cockfosters, 86.86.88.88
T:William Fiske Sherwin, 1878
T:Public Domain Courtesy of the Cyber Hymnal™
C:William Fiske Sherwin, 1878
Z:Public Domain
Z:Courtesy of the Cyber Hymnal™
%%score ( 1 2 ) ( 3 4 )
L:1/8
Q:1/4=100
M:4/4
K:F
V:1 treble 
V:2 treble 
V:3 bass 
V:4 bass 
V:1
 [Fc]2 | [Fc]3 [FA] [Fd][Fc][FB][FA] | ([D-G]4 [B,D]2) [=B,F]2 | [CE]2 C2 [CF]2 [EG]2 | %4
 [FA]4 z2 [Fc]2 | [Fc]3 [FA] [Fd][Fc][FB][FA] | ([D-G]4 [B,D]2) [=B,F]2 | [CE]2 [CF]2 [FA]3 [CG] | %8
 [CF]4 z2 F2 | [Fd]2 [Fd]2 [Fd][Fc][FB][Fd] | c6 [FA]2 | [GB]2 [GB]2 [GB][FA][EG][GB] | %12
 A6 [Fc]2 x2 | [Fd]2 [Fd]2 [Ff][Fd][DB][Fd] | c6 [FA]2 | [EG]2 [EG]2 [Ec][GB][FA][CG] | [CF]6 |] %17
V:2
 x2 | x8 | x8 | x2 C2 x4 | x8 | x8 | x8 | x8 | x6 F2 | x8 | (F2 FF) F2 x2 | x8 | (F2 FF F2) x4 | %13
 x8 | (F2 FF F2) x2 | x8 | x6 |] %17
V:3
 [F,A,]2 | [F,A,]3 [F,C] [F,B,][F,A,][F,D][F,C] | (B,4 G,2) [D,G,]2 | %3
 [C,G,]2 [C,G,]2 [A,,F,]2 [C,C]2 | [F,C]4 z2 [F,A,]2 | [F,A,]3 [F,C] [F,B,][F,A,][F,D][F,C] | %6
 (B,4 G,2) [G,,G,]2 | [C,G,]2 [C,A,]2 [C,C]3 [C,B,] | [F,A,]4 z2 [F,A,]2 | %9
 [B,,B,]2 [B,,B,]2 [B,,B,][C,A,][D,B,][B,,B,] | A,6 [F,C]2 | [C,C]2 [C,C]2 [C,C][C,C][C,C][C,C] | %12
 C6 F,2 [F,A,]2 | B,2 B,2 [B,D]B,[B,,F,][B,,B,] | ([F,A,]2 [F,A,][F,A,] [F,A,]2) [F,C]2 | %15
 [C,C]2 [C,C]2 [C,G,][C,G,][C,C][C,B,] | [F,,F,A,]6 |] %17
V:4
 x2 | x8 | B,,6 x2 | x8 | x8 | x8 | B,,6 x2 | x8 | x8 | x8 | (F,2 F,F, F,2) x2 | x8 | F,2 F,F, x6 | %13
 B,2 B,2 B, x3 | x8 | x8 | x6 |] %17

